cash-refund.svg

<svg fill="currentColor" viewBox="0 0 24 24"><path d="M12.3 8.93 9.88 6.5h5.62V10H17V5H9.88l2.42-2.43-1.06-1.07L7 5.75 11.24 10zM12 14a3 3 0 1 0 3 3 3 3 0 0 0-3-3m-9-3v12h18V11m-2 8a2 2 0 0 0-2 2H7a2 2 0 0 0-2-2v-4a2 2 0 0 0 2-2h10a2 2 0 0 0 2 2Z"/></svg>

<svg  viewBox="0 0 24 24" fill="currentColor"><path  d="M12.3 8.93L9.88 6.5H15.5V10H17V5H9.88L12.3 2.57L11.24 1.5L7 5.75L11.24 10L12.3 8.93M12 14A3 3 0 1 0 15 17A3 3 0 0 0 12 14M3 11V23H21V11M19 19A2 2 0 0 0 17 21H7A2 2 0 0 0 5 19V15A2 2 0 0 0 7 13H17A2 2 0 0 0 19 15Z"/></svg>
